T: Piper On Horseback, The
M: 4/4
L: 1/8
K: Dmaj
~F3d cAAB|cAdB cAGE|~F3d cAAB|1 cAGE EDDE:|2 cAGE EDDA||
defg afdB|efed cA~A2|defg afdB|ABAG FDDA|
defg afdB|efed cAAe|~f3d efed|cAGE EDDE||
%Variation 2nd last bar
f|~a3g efed|
